src/pos-icons/billboard.svg

<svg height="24" viewBox="0 0 24 24" width="24" xmlns="http://www.w3.org/2000/svg"><path d="m20 22h-2v-5h2m-14 5h-2v-5h2m17-13v9a2 2 0 0 1 -2 2h-18a2 2 0 0 1 -2-2v-9a2 2 0 0 1 2-2h18a2 2 0 0 1 2 2m-2 0h-18v9h18m-1-7h-5v2h5m-2 1h-3v2h3m-4 0h-10l2.73-3.64 2 2.73.73-.54-1.26-1.73 1.71-2.27z"/></svg>

<?xml version="1.0" encoding="UTF-8"?><!DOCTYPE svg PUBLIC "-//W3C//DTD SVG 1.1//EN" "http://www.w3.org/Graphics/SVG/1.1/DTD/svg11.dtd"><svg xmlns="http://www.w3.org/2000/svg" xmlns:xlink="http://www.w3.org/1999/xlink" version="1.1" id="mdi-billboard" width="24" height="24" viewBox="0 0 24 24"><path d="M20 22H18V17H20M6 22H4V17H6M23 4V13A2 2 0 0 1 21 15H3A2 2 0 0 1 1 13V4A2 2 0 0 1 3 2H21A2 2 0 0 1 23 4M21 4H3V13H21M20 6H15V8H20M18 9H15V11H18M14 11H4L6.73 7.36L8.73 10.09L9.46 9.55L8.2 7.82L9.91 5.55Z" /></svg>
